X:1
T:Palummella
T:Palummella
T:Teodoro Cottrau
T:Mandolinata per Piedigrotta del 1873
T:by IMSLP - Pubblico dominio
T:by IMSLP - Pubblico dominio
T:by IMSLP - Pubblico dominio
T:by IMSLP - Pubblico dominio
C:Teodoro Cottrau
Z:by IMSLP - Pubblico dominio
%%score 1 { ( 2 4 ) | 3 }
L:1/8
Q:1/4=90
M:4/8
K:Ab
V:1 treble nm="Canto"
V:2 treble nm="Pianoforte"
V:4 treble 
V:3 bass 
V:1
"^Andantino mosso" z4 | z2"^dolciss." !>!A3/2 G/ | F4 | C z !>!A3/2 G/ | F4 | C z !>!B3/2 A/ | %6
w: |Pa\- lum\-|mel\-|la zom\- pae|vo\-|la, ac\- ca\-|
w: |Tu din\-|cel\-|lo Ma\- ri\-|o\-|la, tu nu|
 G z =E z | C2 !>!!turn!_E>D | C4 | C z"^ten." d3/2 c/ | B>c !>!d2- | dB A G | F>G !>!A2- | %13
w: rez\- za|Nen\- na _|mi\-|a; ca stu|co\- _ re|_ _ se ne|sco\- _ la|
w: co\- re|i'è ar\- rub\-|ba\-|to! Pa\- lum\-|mel\- _ la|* * zompa e|vo\- _ l|
 A z !>!G3/2 F/ | =E3/2 F/ G3/2 F/ | =E3/2 B/ A3/2 G/ | F z z2 |!<(! z c c c | B>c!<)! !>!d2- | %19
w: _ tu nce|l'a\- je tu nce|l'aje\- da fa sa\-|pé;|'si ca stu|co\- _ re|
w: _ as\- pet\-|ta\- re as\- pet\-|tà non poz\- zo|chiù;|si Pa\- lum\-|mel\- _ la|
 dB A G | F>G !>!A2- | A z !>!G3/2 F/ | =E F/ G3/2 F | =E B A G | F3 z | z2 E3/2 =D/ | E2 !>!d2- | %27
w: _ _ se ne|sco\- _ _|la tu nce|l'a\- je tu nce|l'aje da fa sa\-|pé!|Pa\- lum\-|mel\- la|
w: _ _ zom\- pae|vo\- _ _|la a\- spet\-|ta\- re a\- spet\-|tà non poz\- zo|chiù||||
 d z E3/2 =D/ | E2 !>!c2- | c z !>!B3/2 A/ | A G/ z/ c3/2 B/ | D2 G3/2 F/ | F E/ z/ B3/2 A/ | %33
w: _ Pa\- lum\-|mel\- la|_ Va\- sa\-|tel\- la, Pa\- lum\-|mé, va\- sa\-|tel\- la Pal\- lum\-|
w: ||||||
 C z c>c | e4- | e d c =B | c4- | c =E F A |!<(! c =B c B!<)! |!>(! c B A G!>)! | F4 | %41
w: mé! Pa\- lum\-|mel\-|_ la, Pa\- lum\-|mel\-|_ la na pa\-|ro\- la, na pa\-|ro\- la dì pe|mé!|
w: ||||||||
!ff! z2 G/F/ =E/F/ | G4- | G d c =B |!<(! c4!<)! | f z G/F/ =E/F/ | G4- | G d c =B |!<(! c4!<)! | %49
w: Ca stu co\- _|_|* re se ne|sco\-|la tu * nce *|l'aje|* da fa sa\-|pé|
w: Me ne mo\- _|_|* ro di\- spe\-|ra\-|to a\- _ spet\- _|tà|* non poz\- zo|chiù|
 z2 !^!f3/2 f/!f! | =e c/ z/ !^!e3/2 e/ | =d B/ z/ ._d .d | .c .=B .c .G | %53
w: Ca stu|co\- re se ne|sco\- la tu nce|l'aje\- da fa sa\-|
w: Me ne|mo- ro di\- spe\-|ra\- to al\- la|me\- glio giu\- ben\-|
 A[Q:1/8=80] z"^rall." d3/2 d/ | d _G/ z/ d3/2 d/ | d _G/ z/ !fermata!e3/2 d/ | .c .=B .c .=E | %57
w: pé ca stu|co\- re se ne|sco\- la tu nce|l'aje da fa sa|
w: tù me ne|mo\- ro di\- spe\-|ra\- to a\- spet\-|tà non poz\- zo|
 F z !fermata!z2!D.C.! |] %58
w: pé!|
w: chiù|
V:2
 z4 | z2({aA)} [Aa]/z[Gg]/ | [Ff]4 | c z({aA)} [Aa]/z[Gg]/ | [Ff]4 | c z({bB)} [Bb]/z[Aa]/ | %6
 [Gg] z =e z | c2 !>!!turn!_e>d |({cC)} [Cc]4 | z2({d'd)} [dd']/z[cc']/ | %10
({c'B)} [Bc']/zc'/ !>![dd']2- | [dd'][Bc'][Aa][Gg] | [Ff]>[Gg] [Aa]2- | [Aa] z({gG)} [Gg]/z[Fg]/ | %14
 [=E=e]>[Ff] [Gg]>[Ff] | [=E=e] (3(b/c'/b/) f (3(b/c'/b/) | [Ff] z z2 | z [cc'][cc'][cc'] | %18
 [Bb]/z[cc']/ !>![dd']2- | [dd'][Bb][Aa][Gg] | [Ff]>[Gg] !>![Aa]2- | [Aa] z({gG)} !>![Gg]>[Fe] | %22
 [=E=e]>[Ff] [Gg]>[Ff] | [=E=e] (3(b/c'/b/) f (3(b/c'/b/) | [Ff]2 z2 |!8va(! [f'a'c''f''] z e>=d | %26
 [Bde]2 !>![ded']2- | [ded'] z e>=d | [ce] z !>![cec']2- | [cec'] z !>![ceb]>[cea] | %30
 (3(c'/d'/c'/) a/ z/ c'>b | d z [dg]>[df] | (3(f/g/f/) e/ z/ b>a!8va)! | C z({c'c)} [cc']/z[cc']/ | %34
 e'/e/e'/e/ e'/e/e'/e/ | e'/ z/ [dd'][cc'][=B=b] | c'/c/c'/c/ c'/c/c'/c/ | %37
!ff! [cc']/ z/ .[=E=e].[Ff].[Aa] |!<(! [cc'].[=B=b].[cc'].[Bb]!<)! | %39
!>(! .[cc'] (3(_b/c'/b/) a (3(b/c'/b/)!>)! | [Ff] z z2 |!f! [fac'f']/ z/ F!p! G/F/=E/F/ | %42
 G/G/G/G/ G/G/G/G/ | G .d.c.=B |!<(! c/c/c/c/ c/c/c/c/ | f/!<)! z/ F G/F/=E/F/ | %46
 G/G/G/G/ G/G/G/G/ | G .d.c.=B | c/c/c/c/ c/c/c/c/ | f!f! z !^![=Af]/z[Bf]/ | %50
 [B=e]c/ z/ !^![=A_e]/z[_Ae]/ | [B=d]B/ z/ .[Fd].[Fd] | [Fc][F=B][=EB][G,B,EG] | [A,CFA] z d>d | %54
 d>dd>d | d_G/ z/ !fermata!e>d | .[Fc].[F=B].[=Ec].[G,_B,E] | [F,A,CF] z !fermata![FAcf]2 |] %58
V:3
!ff! .F,,.C,.A,.C, | .F,,.C,.A,.C, | .F,,.C,.A,.C, | .F,,.C,.A,.C, | .F,,.C,.A,.C, | %5
 .F,,.C,.A,.C, | .C,,.C,.B,.C, | .C,,.C,.B,.C, | .F,,.C,.A,.C, | F,,C,A,C, | B,,F,DF, | B,,F,DF, | %12
 C,A,CA, | C,A,CA, | C,,C,=E,C, | C,, .D.C.B, | F,,C,A,C, | .F,,.C,.A,.C, | B,,F,DF, | B,,F,DF, | %20
 C,A,CA, | C,A,CA, | .C,,.C,.=E,.C, | C,, .D.C.B, | .F,,.C,.A,.C, | F,, z z2 | .E,,.E,.G,.E, | %27
 .E,,.E,.G,.E, | .A,,.E,.G,.E, | .A,,.E,.G,.E, | .B,,.E,.G,.E, | .E,,.E,.G,.E, | .A,,.E,.A,.E, | %33
 .A,,.E,.G,.E, | .B,,.F,.D.F, | .B,,.F,.D.F, | .C,.A,.C.A, | .C,.A,.C.A, | .C,,.C,.=E,.C, | %39
 .C,, .D.C.B, | .F,,.D,.F,.D, | F,, z z2 | [D,D] z [C,C] z | [B,,B,] z [G,,G,] z | [A,,A,] z z2 | %45
 [F,,F,] z z2 | [D,D] z [C,C] z | [B,,B,] z [G,,G,] z | [A,,A,] z [G,,G,] z | %49
 [F,,F,] z !^![F,,C,]/z[F,,C,]/ | [G,,C,] z !^![=A,,F,]/z[A,,F,]/ | [B,,F,] z .[B,,G,].[B,,G,] | %52
 .[C,A,].[D,A,].[C,B,][C,,C,] | [F,,C,] z"^rall." (([D,_C] z | [B,,_G,])) z (([D,_C]2 | %55
 [B,,_G,])) z !fermata![B,,=G,]2 | .[C,A,].[D,A,].[C,_B,].[C,,C,] | %57
 [D,,,F,,] z !fermata![D,,,F,,]2 |] %58
V:4
 x4 | x4 | x4 | x4 | x4 | x4 | x4 | x4 | x4 | x4 | x4 | x4 | x4 | x4 | x4 | x B A G | x4 | x4 | %18
 x4 | x4 | x4 | x4 | x4 | x B A G | x4 |!8va(! x4 | x4 | x4 | x4 | x4 | d4- | d x3 | c4-!8va)! | %33
 C x3 | x4 | x4 | x4 | x4 | x4 | x BAG | x4 | x4 | x4 | x4 | x4 | x4 | x4 | x4 | x4 | x4 | x4 | %51
 x4 | x4 | x2 F2 | D2 F2 | D2 F2- | F2 z2 | x4 |] %58

